!!!COM: Palestrina, Giovanni Perluigi da
!!!OPR: Missa Ad fugam
!!!OMD: Sanctus
!!!OTL: First Section
**kern	**kern	**kern	**kern
*Ibass	*Itenor	*Icalto	*Icant
!Bassus	!Tenor	!Altus	!Cantus
*clefF4	*clefGv2	*clefG2	*clefG2
*k[]	*k[]	*k[]	*k[]
*G:mix	*G:mix	*G:mix	*G:mix
*M4/2	*M4/2	*M4/2	*M4/2
=1	=1	=1	=1
0r	0r	1g	1r
.	.	1a	1cc
=2	=2	=2	=2
0r	0r	1g	1dd
.	.	2r	1cc
.	.	[2cc	.
=3	=3	=3	=3
0r	0r	4cc]	2r
.	.	4b	.
.	.	4a	2.ff
.	.	4g	.
.	.	2f	.
.	.	.	4ee
.	.	[2g	4dd
.	.	.	4cc
=4	=4	=4	=4
0r	0r	2g]	2b
.	.	2e	1cc
.	.	2f	.
.	.	[2a	2a
=5	=5	=5	=5
1G	1r	4a]	2b
.	.	4g	.
.	.	1g	2.dd
1A	1c	.	.
.	.	.	4cc
.	.	2f#	[2cc
=6	=6	=6	=6
1G	1d	1g	2cc]
.	.	.	2b
2r	1c	1g	1cc
[2c	.	.	.
=7	=7	=7	=7
4c]	2r	2e	1cc
4B	.	.	.
4A	2.f	2.a	.
4G	.	.	.
1F	.	.	2a
.	4e	4g	.
.	4d	4f	[2dd
.	4c	4e	.
=8	=8	=8	=8
1G	1B	2d	4dd]
.	.	.	4cc
.	.	2.g	4b
.	.	.	4a
2E	1c	.	2g
.	.	4f	.
[2A	.	4e	[2cc
.	.	4d	.
=9	=9	=9	=9
4A]	2A	2e	4cc]
4G	.	.	4b
4F	2.d	2.f	4a
4E	.	.	4g
1D	.	.	2a
.	4c	4e	.
.	4B	[2d	[2b
.	4A	.	.
=10	=10	=10	=10
1E	1G	4d]	4b]
.	.	8c	4a
.	.	8B	.
.	.	2c#	2.g
1D	1A	2d	.
.	.	.	8f
.	.	.	8e
.	.	2a	2f#
=11	=11	=11	=11
1G	1G	2b	2g
.	.	2b	2dd
1r	1c	2cc	2ee
.	.	2g	2ee
=12	=12	=12	=12
2r	1r	2a	2ff
2A	.	2a	2cc
2B	2r	1d	2dd
2B	2d	.	2dd
=13	=13	=13	=13
2c	2e	1r	1g
2G	2e	.	.
2A	2f	2r	1r
2A	2c	2e	.
=14	=14	=14	=14
1D	2d	2f#	2r
.	2d	2f#	2a
1r	1G	2g	2b
.	.	2d	2b
=15	=15	=15	=15
1E	1r	2e	2cc
.	.	2g	2g
2F	1A	2.f	2a
2F	.	.	2cc
.	.	4e	.
=16	=16	=16	=16
2G	2B	2d	2.b
2D	2B	2f	.
.	.	.	4a
2E	2c	2e	2g
2G	2G	[2d	2b
=17	=17	=17	=17
2F	2A	4d]	2a
.	.	4c	.
2E	2c	2c	2.g
1D	2B	1d	.
.	.	.	4f#
.	2A	.	2f#
=18	=18	=18	=18
[0G	[0G	[0d	[0g
=19	=19	=19	=19
0G]	0G]	0d]	0g]
*-	*-	*-	*-
!!!CDT: 1525/^1526/-1594/2/2
!!!OCY: Italia
!!!AGN: Mass (Canonic)
!!!AST: renaissance, vocal
!!!ASW: Motet (Maffoni)
!!!PWK: Masses, Book 2
!!!RNB: Cadence finals: C
!!!YOR: Le Opere Complete, v. 4, p. 74
!!!YOO: Rome, Italy: Fratelli Scalera
!!!END: 1992//
!!!EED: John Miller
!!!YEC: Copyright 2000, John Miller
!!!YEN: United States of America
!!!YEM: Rights to all derivative electronic formats reserved.
!!!YEM: Refer to licensing agreement for further details.
!!!YEM: This file must be accompanied by the licensing agreement.
!!!YEM: A copy of the licensing agreement may be found at http://www.music-cog.ohio-state.edu/HumdrumDatabases/Palestrina/license.txt
!!!EMD: converted to Humdrum by Bret Aarden
